app/component-library/components/Icons/Icon/assets/speedometer.svg

<svg width="24" height="24" viewBox="0 0 24 24" fill="none" xmlns="http://www.w3.org/2000/svg">
<path fill-rule="evenodd" clip-rule="evenodd" d="M2.78076 15.5463V17.7353C2.78076 17.9381 2.85775 18.1326 2.9948 18.276C3.13184 18.4194 3.31772 18.5 3.51153 18.5H21.05C21.2438 18.5 21.4297 18.4194 21.5667 18.276C21.7038 18.1326 21.7808 17.9381 21.7808 17.7353V15.4412C21.7808 14.1325 21.5338 12.8367 21.0541 11.628C20.5744 10.4194 19.8714 9.32183 18.9854 8.39821C18.0993 7.47459 17.0478 6.74313 15.8909 6.24579C14.7341 5.74846 13.4949 5.49504 12.2442 5.50007C7.00095 5.51919 2.78076 10.05 2.78076 15.5463ZM18.2808 14.5C18.833 14.5 19.2808 14.0523 19.2808 13.5C19.2808 12.9477 18.833 12.5 18.2808 12.5C17.7285 12.5 17.2808 12.9477 17.2808 13.5C17.2808 14.0523 17.7285 14.5 18.2808 14.5ZM6.78076 13.5C6.78076 14.0523 6.33305 14.5 5.78076 14.5C5.22848 14.5 4.78076 14.0523 4.78076 13.5C4.78076 12.9477 5.22848 12.5 5.78076 12.5C6.33305 12.5 6.78076 12.9477 6.78076 13.5ZM11.6313 9.5C12.1836 9.5 12.6313 9.05228 12.6313 8.5C12.6313 7.94772 12.1836 7.5 11.6313 7.5C11.0791 7.5 10.6313 7.94772 10.6313 8.5C10.6313 9.05228 11.0791 9.5 11.6313 9.5ZM17.3111 9.96967C17.604 10.2626 17.604 10.7374 17.3111 11.0303L13.6078 14.7337C13.6233 14.8201 13.6313 14.9091 13.6313 15C13.6313 15.8284 12.9598 16.5 12.1313 16.5C11.3029 16.5 10.6313 15.8284 10.6313 15C10.6313 14.1716 11.3029 13.5 12.1313 13.5C12.3076 13.5 12.4768 13.5304 12.6339 13.5862L16.2504 9.96967C16.5433 9.67678 17.0182 9.67678 17.3111 9.96967Z" fill="currentColor"/>
</svg>

<svg xmlns="http://www.w3.org/2000/svg" width="24" height="24" viewBox="0 0 24 24" fill="none"><path fill="currentColor" fill-rule="evenodd" d="M2.78 15.546v2.19c0 .202.078.397.215.54a.715.715 0 0 0 .517.224H21.05c.194 0 .38-.08.517-.224a.783.783 0 0 0 .214-.54V15.44c0-1.309-.247-2.604-.727-3.813a9.982 9.982 0 0 0-2.069-3.23 9.481 9.481 0 0 0-3.094-2.152 9.134 9.134 0 0 0-3.647-.746c-5.243.02-9.463 4.55-9.463 10.046Zm15.5-1.046a1 1 0 1 0 0-2 1 1 0 0 0 0 2Zm-11.5-1a1 1 0 1 1-2 0 1 1 0 0 1 2 0Zm4.851-4a1 1 0 1 0 0-2 1 1 0 0 0 0 2Zm5.68.47a.75.75 0 0 1 0 1.06l-3.703 3.704a1.5 1.5 0 1 1-.974-1.148L16.25 9.97a.75.75 0 0 1 1.061 0Z" clip-rule="evenodd"/></svg>
